X:1
T:Tronca l'indegno
T:Tronca l'indegno
T:Gio.Girolamo Kapsperger
C:Gio.Girolamo Kapsperger
%%score 1 { ( 2 4 ) | 3 }
L:1/8
Q:1/4=120
M:3/4
K:F
V:1 treble nm="Soprano" snm="S"
V:2 treble nm="BC" snm="BC"
V:4 treble 
V:3 bass 
V:1
 G3 G c2 | B4 A2 | G2 G2 A2 | B4 A2 | G6 | B2 F2 G2 | A3 =B c2- | c2 c2 =B2 | c6 :: A2 c2 d2 | %10
w: Tron- ca l'in-|de- go|lac- cio cru-|del A-|mor'|to- gli d'im-|pac- cio que-|* sto mio|cor'.|Vo- ler' che|
w: En- tro'al tuo|dol- ce|fo- co, cre-|dei gio-|ir',|ma tu per|gio- co mi|_ fai lan-|guir'.|Non piu se-|
w: Quel che di|vi- ta|re- sta, il|cor go-|dra,|in gio- ia'e|fe- sta e'n|_ li- ber-|ta.|Quel lac- cio|
 G2 G2 c2 | B3 c B2 | A4 A2 | B2 B2 A2 | G2 G2 E2 | F4 G2 | A3 B/c/ d2 | G2 G4 | F6 |] %19
w: mo- ra chi|fi- do t'o-|no- ra,-|Ahi gran tor-|men- to, io|che lo|pro- * * *|vo'il sen-|to.|
w: gua- ce pre-|gar- ti vo|pa- ce,|Ahi tal mar-|ti- re, piu|non si|puo _ _ _|sof- fri-|re.|
w: scio- gli d'im-|pac- cio mi|to- gli,|ch'a tal do-|lo- re, non|e ba-|* * * te|un co-|re.|
V:2
 [Ec]4 [EA]2 | [FBd]2 [Fc]4 | [Ec]4 [EA]2 | [DB]2 [DF]4 | [DB]6 | [DG]2 [FA]2 [Ec]2 | [Ac]4 [Ec]2 | %7
 [Gc]4 =B2 | [EG]6 :: [Ac]2 [EA]2 [DF]2 | [EG]4 [EA]2 | [DG]2 [EG]4 | [^FA]6 | [DG]6 | [EG]6 | %15
 [DB]2 [Ac]2 [DB]2 | [Ac]2 G2 [FA]2 | [DB]2 c4 | [FA]6 |] %19
V:3
 C,4 A,,2 | B,,2 F,,4 | C,4 A,,2 | G,,2 D,4 | G,,6 | G,2 D,2 E,2 | F,3 G, A,2 | G,4 G,2 | C,6 :: %9
 F,2 A,2 B,2 | C2 C,2 A,2 | G,2 C,4 | D,6 | G,,6 | C,6 | B,,2 A,,2 G,,2 | F,2 E,2 D,2 | B,,2 C,4 | %18
 F,,6 |] %19
V:4
 x6 | x6 | x6 | x6 | x6 | x6 | x6 | D4 D2 | x6 :: x6 | x6 | x6 | x6 | x6 | x6 | x6 | x6 | %17
 D2 F2 E2 | x6 |] %19

